icon/ir/rook.svg

<svg viewBox="0 0 24 24" stroke-width="1.5" fill="none" xmlns="http://www.w3.org/2000/svg" height="1em" width="1em">
  <path d="M7 16L17 16" stroke="currentColor" stroke-linecap="round"/>
  <path d="M9 11L15 11" stroke="currentColor" stroke-linecap="round"/>
  <path d="M10 4V6" stroke="currentColor" stroke-linecap="round"/>
  <path d="M14 4V6" stroke="currentColor" stroke-linecap="round"/>
  <path d="M17.4 9L6.6 9C6.26863 9 6 8.73137 6 8.4L6 4.6C6 4.26863 6.26863 4 6.6 4L17.4 4C17.7314 4 18 4.26863 18 4.6V8.4C18 8.73137 17.7314 9 17.4 9Z" stroke="currentColor" stroke-linecap="round"/>
  <path d="M17.901 21L6.099 21C5.6243 21 5.3318 20.4737 5.57763 20.0676C6.7923 18.061 9.5 13.3271 9.5 11V9.59965C9.5 9.26828 9.76863 9 10.1 9H13.9C14.2314 9 14.5 9.26828 14.5 9.59965V11C14.5 13.3271 17.2077 18.061 18.4224 20.0676C18.6682 20.4737 18.3757 21 17.901 21Z" stroke="currentColor" stroke-linecap="round"/>
</svg>

<svg width="24" height="24" stroke-width="1.5" fill="none" xmlns="http://www.w3.org/2000/svg"><path d="M7 16h10M9 11h6M10 4v2M14 4v2M17.4 9H6.6a.6.6 0 0 1-.6-.6V4.6a.6.6 0 0 1 .6-.6h10.8a.6.6 0 0 1 .6.6v3.8a.6.6 0 0 1-.6.6ZM17.901 21H6.099a.615.615 0 0 1-.521-.932C6.792 18.06 9.5 13.328 9.5 11V9.6a.6.6 0 0 1 .6-.6h3.8a.6.6 0 0 1 .6.6V11c0 2.327 2.708 7.061 3.922 9.068a.615.615 0 0 1-.521.932Z" stroke="currentColor" stroke-linecap="round"/></svg>
